X: 26665
T: Midnight In Virginia
R: reel
M: 4/4
K: Dmajor
d2 fd cA ~A2|FAdf gbaf|d2 fd A/B/A FA|BE ~E2 cdec|
d2 fd A/B/A FA|defa g3b|a2 fd cdec|1 Aceg fddc:|2 Aceg fdde||
~f3 a geeg|fgaf g2ag|~f3 a geed|cdef g/a/b fe|
d2 fd e/f/e fe|defa g3b|a2 fd cdec|1 Aceg fdde:|2 Aceg f3d||
eA ~A2 EA ~A2|e^def g/a/g fe|d2ad bdad|fbaf gefd|
eA ~A2 EA ~A2|e^def g3b|a2 fd cdec|1 Aceg fddf:|2 Aceg f3e||

